components/ui-node-icon/src/mergeColumns/mergeColumns.large.svg

<svg width="32" height="32" viewBox="0 0 32 32" fill="none" xmlns="http://www.w3.org/2000/svg">
  <path fill-rule="evenodd" clip-rule="evenodd" d="M13 3C13.5523 3 14 3.44772 14 4V28C14 28.5523 13.5523 29 13 29C12.4477 29 12 28.5523 12 28V4C12 3.44772 12.4477 3 13 3ZM20 3C20.5523 3 21 3.44772 21 4V28C21 28.5523 20.5523 29 20 29C19.4477 29 19 28.5523 19 28V4C19 3.44772 19.4477 3 20 3ZM5.61732 13.0761C5.99099 12.9214 6.42111 13.0069 6.70711 13.2929L8.70711 15.2929C9.09763 15.6834 9.09763 16.3166 8.70711 16.7071L6.70711 18.7071C6.42111 18.9931 5.99099 19.0787 5.61732 18.9239C5.24364 18.7691 5 18.4045 5 18V14C5 13.5956 5.24364 13.2309 5.61732 13.0761ZM26.8827 13.0762C26.509 12.9214 26.0789 13.0069 25.7929 13.2929L23.7929 15.2929C23.4024 15.6834 23.4024 16.3166 23.7929 16.7071L25.7929 18.7071C26.0789 18.9931 26.509 19.0787 26.8827 18.9239C27.2564 18.7691 27.5 18.4045 27.5 18V14C27.5 13.5956 27.2564 13.2309 26.8827 13.0762Z" fill="var(--tbl--colors--icons--clean--primary)"/>
</svg>

<svg xmlns="http://www.w3.org/2000/svg" width="32" height="32" fill="none" viewBox="0 0 32 32">
  <path fill="var(--tbl--colors--icons--clean--primary)" fill-rule="evenodd" d="M13 3a1 1 0 0 1 1 1v24a1 1 0 1 1-2 0V4a1 1 0 0 1 1-1Zm7 0a1 1 0 0 1 1 1v24a1 1 0 1 1-2 0V4a1 1 0 0 1 1-1ZM5.617 13.076a1 1 0 0 1 1.09.217l2 2a1 1 0 0 1 0 1.414l-2 2A1 1 0 0 1 5 18v-4a1 1 0 0 1 .617-.924Zm21.266 0a1 1 0 0 0-1.09.217l-2 2a1 1 0 0 0 0 1.414l2 2A1 1 0 0 0 27.5 18v-4a1 1 0 0 0-.617-.924Z" clip-rule="evenodd"/>
</svg>
